packages/core/src/svgs/wbeth.svg

<svg width="24" height="24" viewBox="0 0 24 24" fill="none" xmlns="http://www.w3.org/2000/svg">
<g clip-path="url(#clip0_31_20644)">
<path d="M0 0H24V24H0V0Z" fill="url(#paint0_linear_31_20644)"/>
<path d="M17.0058 17.2972C15.6539 18.5774 13.8619 19.2893 12.0001 19.2858C10.0929 19.2858 8.35723 18.5572 7.06294 17.3572L7.66723 16.7486C8.85038 17.8311 10.3964 18.4306 12.0001 18.4286C13.7015 18.4286 15.2487 17.7686 16.3972 16.6886L17.0058 17.2972ZM17.5329 16.7401C18.6664 15.4212 19.2884 13.7391 19.2858 12.0001C19.2858 10.0972 18.5572 8.3615 17.3572 7.06293L16.7572 7.6715C17.8356 8.85485 18.4319 10.3991 18.4287 12.0001C18.4287 13.5729 17.8629 15.0172 16.9244 16.1315L17.5329 16.7401ZM7.86865 7.07578C8.98294 6.13721 10.4272 5.5715 12.0001 5.5715C13.6072 5.5715 15.0772 6.16293 16.2001 7.13578L16.8129 6.52721C15.5272 5.40007 13.8429 4.71436 12.0001 4.71436C10.1915 4.71436 8.53294 5.37436 7.26008 6.4715L7.86865 7.07578ZM7.31151 7.60293L6.70294 6.99436C5.42274 8.34621 4.71084 10.1382 4.71437 12.0001C4.71437 13.8429 5.40008 15.5272 6.52723 16.8086L7.1358 16.2001C6.12541 15.0342 5.56993 13.5428 5.57151 12.0001C5.57151 10.2986 6.23151 8.7515 7.31151 7.60293Z" fill="white"/>
<path d="M12 10.7228L9 11.9999C9.99857 10.4571 12 7.36279 12 7.28564V10.7228Z" fill="#868686"/>
<path d="M12 10.7228L15 11.9999C13.9971 10.4571 12 7.36279 12 7.28564V10.7228Z" fill="#312706"/>
<path d="M12 13.7144L9 12.0001L12 10.7144V13.7144Z" fill="#363636"/>
<path d="M12 13.7144L15 12.0001L12 10.7144V13.7144Z" fill="#130F03"/>
<path d="M12 14.3359L9 12.6431L12 16.7145V14.3359Z" fill="#868686"/>
<path d="M12 14.3359L15 12.6431L12 16.7145V14.3359Z" fill="#312807"/>
</g>
<defs>
<linearGradient id="paint0_linear_31_20644" x1="0" y1="12" x2="24" y2="12" gradientUnits="userSpaceOnUse">
<stop stop-color="#F8D33A"/>
<stop offset="1" stop-color="#F0BA0C"/>
</linearGradient>
<clipPath id="clip0_31_20644">
<rect width="24" height="24" fill="white"/>
</clipPath>
</defs>
</svg>

<svg xmlns="http://www.w3.org/2000/svg" width="24" height="24" fill="none" viewBox="0 0 24 24"><g clip-path="url(#a)"><path fill="url(#b)" d="M0 0h24v24H0z"/><path fill="#fff" d="M17.006 17.297A7.26 7.26 0 0 1 12 19.286a7.23 7.23 0 0 1-4.937-1.929l.604-.608A6.4 6.4 0 0 0 12 18.429c1.701 0 3.249-.66 4.397-1.74zm.527-.557A7.26 7.26 0 0 0 19.286 12a7.25 7.25 0 0 0-1.929-4.937l-.6.609A6.4 6.4 0 0 1 18.43 12a6.4 6.4 0 0 1-1.505 4.131zM7.869 7.076A6.4 6.4 0 0 1 12 5.572c1.607 0 3.077.59 4.2 1.564l.613-.609A7.28 7.28 0 0 0 12 4.714c-1.809 0-3.467.66-4.74 1.757zm-.557.527-.61-.609A7.26 7.26 0 0 0 4.715 12a7.26 7.26 0 0 0 1.813 4.809l.609-.609A6.4 6.4 0 0 1 5.572 12c0-1.701.66-3.248 1.74-4.397"/><path fill="#868686" d="M12 10.723 9 12c.999-1.543 3-4.637 3-4.714z"/><path fill="#312706" d="M12 10.723 15 12c-1.003-1.543-3-4.637-3-4.714z"/><path fill="#363636" d="M12 13.714 9 12l3-1.286z"/><path fill="#130F03" d="M12 13.714 15 12l-3-1.286z"/><path fill="#868686" d="m12 14.336-3-1.693 3 4.072z"/><path fill="#312807" d="m12 14.336 3-1.693-3 4.072z"/></g><defs><linearGradient id="b" x1="0" x2="24" y1="12" y2="12" gradientUnits="userSpaceOnUse"><stop stop-color="#F8D33A"/><stop offset="1" stop-color="#F0BA0C"/></linearGradient><clipPath id="a"><path fill="#fff" d="M0 0h24v24H0z"/></clipPath></defs></svg>
